X: 4276
T: SAND DANCE
R: Hornpipe.
%R: hornpipe, reel
B: James Kerr "Merry Melodies" v.4 p.29 #276
Z: 2016 John Chambers <jc:trillian.mit.edu>
M: C|
L: 1/8
K: A
|:\
(3ccc c2 (3ccc c2 | cBAB c2e2 |\
fagf ecae |[1 dcBA GBed :|[2 cABG A2z2 H|:\
(3BBB B2 (3BBB B2 |
dcBc dfed |\
(3ccc c2 (3ccc c2 | edcd eagf |\
ecea fagf | ecea fagf |\
ecag fedc | BAGF E2e2 :|

%%sep 1 1 500
%%sep 1 1 500

